X: 020562
T: Buailteoir Aerach (Merry Thresher)
S: "Treoir"
Z: B.Black
M: 4/4
L: 1/8
R: reel
K: G
dc | B3 A GBdB | cBAG FA D2 | BG G2 dcAG | (3FED AD GFED |
B2 BA GBdB | cBAG FAdc | BG G2 dcAG | (3FED EF G2 :|
(3ABc | d3 g e2 ed | ^cA A2 d2 d=c | BG G2 dcAG |\
(3FED AD GFED |
d3 B e2 ed | ^cA A2 ded=c | BG G2 dcAG | (3FED EF G2 :|
